X: 58
T: Deus in adjutorium
N: Derived from Mar2021-Deus_in_adjutorium.krn
C: Johannes Martini
%%abc-version 2.0
%%abcx-abcm2ps-target-version 5.9.1 (29 Sep 2008)
%%abc-creator hum2abc beta
%%abcx-conversion-date 2019/02/17 07:19:42
%%abc-edited-by Jesse Rodin
%%abc-edited-by Chris Gage 08-01-2014
%%abcx-initial-encoding-date 2014/10/06/
%%humdrum-veritas 1909596173
%%humdrum-veritas-data 3781965758
%%linebreak <none>
%%barnumbers 0
L: 1/4
M: 4/2
Q: 1/2=120
V: 1 clef=treble
V: 2 clef=treble-8
V: 3 clef=treble-8
K: C
[V:1] c2c2c4 | 
[V:2] e2e2f4 | 
[V:3] c2c2F4 | 
[V:1] B2A2B2c2- | 
[V:2] d2c2d2e2- | 
[V:3] G2A2G2C2- | 
[V:1] c2BAG2A2- | 
[V:2] e2dcB2c2 | 
[V:3] CDEFG2F2- | 
[V:1] A2G4^F2 | 
[V:2] d2B2A4 | 
[V:3] F2G2D4 | 
[V:1] G8 ||  
[V:2] G8 ||  
[V:3] d8 ||  
[V:1] c4c2c2 | 
[V:2] e4e2e2 | 
[V:3] c4A2A2 | 
[V:1] c4c4 | 
[V:2] f4f4 | 
[V:3] F4F4 | 
[V:1] c2c2c2c2 | 
[V:2] c2c2e2e2 | 
[V:3] A2A2A2A2 | 
[V:1] c4z4 | 
[V:2] e4z4 | 
[V:3] A4z4 | 
[V:1] c2c2c4 | 
[V:2] c2c2e2c2 | 
[V:3] A2A2A4 | 
[V:1] B2A2G2A2- | 
[V:2] d4B2c2- | 
[V:3] G4G2F2- | 
[V:1] AG^FEF4 | 
[V:2] c2B2A4 | 
[V:3] F2G2D4 | 
[V:1] G8 ||  
[V:2] G8 ||  
[V:3] d8 ||  
[V:1] c4c2c2 | 
[V:2] e4f2f2 | 
[V:3] c4F2F2 | 
[V:1] c4B2B2 | 
[V:2] f4d2d2 | 
[V:3] F4G2G2 | 
[V:1] A4B4 | 
[V:2] c4d4 | 
[V:3] A4G4 | 
[V:1] c2d4c2- | 
[V:2] e2f4e2 | 
[V:3] c2_B4c2 | 
[V:1] c2B2c4 | 
[V:2] d4c4 | 
[V:3] G4C4 | 
[V:1] z4c4 | 
[V:2] z4e4 | 
[V:3] z4C4 | 
[V:1] B2G2A2B2- | 
[V:2] d2B2c2d2- | 
[V:3] G2G2F2D2 | 
[V:1] B2G4^F2 | 
[V:2] d2B2A4 | 
[V:3] G4D4 | 
[V:1] G8 ||  
[V:2] G8 ||  
[V:3] d8 ||  
[V:1] c4c2c2 | 
[V:2] c4e2e2 | 
[V:3] c4A2A2 | 
[V:1] c4c4 | 
[V:2] e4c4 | 
[V:3] A4A4 | 
[V:1] B4c2d2- | 
[V:2] d4e2f2 | 
[V:3] G4E2D2 | 
[V:1] d2c4B2 | 
[V:2] g2c2d4 | 
[V:3] G2A2G4 | 
[V:1] c4z4 | 
[V:2] c4z4 | 
[V:3] C4z4 | 
[V:1] c2c2c2c2 | 
[V:2] e2e2f2f2 | 
[V:3] c2c2F2F2 | 
[V:1] c4B2A2- | 
[V:2] e4d2c2- | 
[V:3] A2c2G2C2 | 
[V:1] A2G4^F2 | 
[V:2] c2B2A4 | 
[V:3] F2G2D4 | 
[V:1] G8 ||  
[V:2] G8 ||  
[V:3] d8 ||  
[V:1] c2c2c4 | 
[V:2] e2e2e4 | 
[V:3] c2c2A4 | 
[V:1] c4c2c2 | 
[V:2] f4e2e2 | 
[V:3] F4A2A2 | 
[V:1] c4B2A2- | 
[V:2] e4d2c2 | 
[V:3] A2c2G2A2 | 
[V:1] A2G2A4 | 
[V:2] B4A4 | 
[V:3] E4F4 | 
[V:1] B4c2d2- | 
[V:2] d4e2f2 | 
[V:3] G4E2D2 | 
[V:1] d2c4B2 | 
[V:2] g2e2d4 | 
[V:3] E2C2G4 | 
[V:1] c4z4 | 
[V:2] c4z4 | 
[V:3] C4z4 | 
[V:1] c4B2A2 | 
[V:2] e4d2c2 | 
[V:3] c4G2A2 | 
[V:1] B4c4 | 
[V:2] d4c4 | 
[V:3] G4A4 | 
[V:1] c2c2c2c2 | 
[V:2] e2e2e2e2 | 
[V:3] c2c2c2c2 | 
[V:1] c4B2B2 | 
[V:2] f4d2d2 | 
[V:3] F4G2G2 | 
[V:1] c4z2c2 | 
[V:2] c4e4 | 
[V:3] A4A4 | 
[V:1] c2c2c4 | 
[V:2] e2e2e4 | 
[V:3] A2A2A4 | 
[V:1] B2A2G2A2- | 
[V:2] d2c2B2c2- | 
[V:3] D2F2G2F2- | 
[V:1] A2G4^F2 | 
[V:2] c2B2A4 | 
[V:3] F2G2D4 | 
[V:1] G8 ||  
[V:2] G8 ||  
[V:3] d8 ||  
[V:1] c2c2c4 | 
[V:2] e4e2e2 | 
[V:3] c2c2c4 | 
[V:1] c4c2c2 | 
[V:2] e4e2e2 | 
[V:3] A4A2A2 | 
[V:1] c4B4 | 
[V:2] f4g4 | 
[V:3] A4G4 | 
[V:1] c2d4c2- | 
[V:2] c2B2c2e2 | 
[V:3] A2G2E2C2 | 
[V:1] c2B2c4 | 
[V:2] d4c4 | 
[V:3] G4C4 | 
[V:1] z4c4 | 
[V:2] z4e4 | 
[V:3] z4C4 | 
[V:1] B2A2G2A2- | 
[V:2] d4B2c2 | 
[V:3] G2D2G2F2- | 
[V:1] A2G4^F2 | 
[V:2] d2B2A4 | 
[V:3] F2G2D4 | 
[V:1] G8 ||  
[V:2] G8 ||  
[V:3] d8 ||  
[V:1] c4c2c2 | 
[V:2] e4e2e2 | 
[V:3] c4A2A2 | 
[V:1] c4c4 | 
[V:2] f4f4 | 
[V:3] F4F4 | 
[V:1] c2c2c2c2 | 
[V:2] e2e2e2e2 | 
[V:3] A2A2A2A2 | 
[V:1] c4B4 | 
[V:2] c4d4 | 
[V:3] A4G4 | 
[V:1] c2d3cBA | 
[V:2] e2f3ce2 | 
[V:3] c2_B3AGF | 
[V:1] B4c4 | 
[V:2] d4c4 | 
[V:3] G4A4 | 
[V:1] z4c2c2 | 
[V:2] z4e2e2 | 
[V:3] z4A2A2 | 
[V:1] c4B2A2 | 
[V:2] f4d4 | 
[V:3] F4G2D2 | 
[V:1] G2A4G2- | 
[V:2] B2c4B2 | 
[V:3] G2F4G2 | 
[V:1] G2^F2G4 |]  
[V:2] A4G4 |]  
[V:3] D4d4 |]  



